X:127
T:We have nothing else to do
M:9/8
L:1/8
B:Thompson's Compleat Collection of 200 Favourite Country Dances, vol. 1 (London, 1757)
Z:Transcribed and edited by Flynn Titford-Mock, 2007
Z:abc's:AK/Fiddler's Companion
K:A
E|:ABA cec BGE|ABA cec dBG|ABA cde fga|fdB ecA BGE:|
|:(a/g/f/g/)a ecA ecA|(a/g/f/g/)a fdB fdB|(a/g/f/g/)a ecA ecA|fdB ecA BGE:|

